X: 1
T: BELLE OF THE KITCHEN -- JIG
B: Ryan's Mammoth Collection of Fiddle Tunes
R: JIG
M: 6/8
L: 1/8
Z: Contributed 20000422021456 by John Chambers jc:ecf-guest.mit.edu
K: G
   vGBG EDE | GBd ("4"e2d) | gBB B2A | GEE E2D |
|   GBG EDE | GBd ("4"e2d) | gBB B2A | BGG G2z :|
|: vGBd GBd | GBd  "4"ede  | GBd efg | dcB AGA |
|   GBd efg | dcB     AGA  | BGD D2d | BGG G2z :|
